dist/icons/lyne-service-bell-small.svg

<svg width="24" height="24" viewBox="0 0 24 24" fill="none" xmlns="http://www.w3.org/2000/svg">
<path fill-rule="evenodd" clip-rule="evenodd" d="M12.98 4.9997H10.98V3.9997H12.98V4.9997ZM6.76315 8.73183C7.94071 7.11302 9.70759 5.9997 12 5.9997C14.2926 5.9997 16.057 7.11321 17.2332 8.73205C18.4009 10.339 18.9948 12.4458 19 14.4984L19.0013 14.9997H18.5H5.49999H4.99999V14.4997C4.99999 12.4461 5.59412 10.3389 6.76315 8.73183ZM6.01286 13.9997H17.9859C17.8942 12.2905 17.3579 10.6048 16.4242 9.31986C15.408 7.92119 13.9274 6.9997 12 6.9997C10.0724 6.9997 8.58928 7.92138 7.57183 9.32008C6.63699 10.6052 6.10074 12.2909 6.01286 13.9997ZM5.35994 15.9997H4.99842L4.88513 16.343L4.22513 18.343L4.00842 18.9997H4.69994H19.2999H19.9948L19.774 18.3409L19.104 16.3409L18.9898 15.9997H18.6299H5.35994ZM5.39147 17.9997L5.72147 16.9997H18.2701L18.6051 17.9997H5.39147Z" fill="black"/>
</svg>

<svg width="24" height="24" xmlns="http://www.w3.org/2000/svg"><path fill-rule="evenodd" clip-rule="evenodd" d="m12.98,5h-2v-1h2v1zM6.76,8.73C7.94,7.11,9.71,6,12,6c2.29,0,4.06,1.11,5.23,2.73C18.4,10.34,18.99,12.45,19,14.5l0,.5H5v-.5c0-2.05.59-4.16,1.76-5.77zm-.75,5.27H17.99c-.09-1.71-.63-3.39-1.56-4.68C15.41,7.92,13.93,7,12,7c-1.93,0-3.41.92-4.43,2.32-.93,1.29-1.47,2.97-1.56,4.68zm-.65,2h-.36l-.99,3H19.99l-1-3H5.36zm.03,2,.33-1H18.27l.34,1H5.39z"/></svg>
